X:1
T: Lady Elizabeth Lindsay
C:Nathaniel Gow
R:Strathspey
Q: 128
K:Bb
M:4/4
L:1/16
|:g2|fB3 d3c B3G G3B|F2B2 D2B2 F2D2 D2g2|fB3 d3c B2G2 G2B2|FB3 D3d c4 c2g2|
fB3 d3c B3G G3B|F2B2 D2B2 F2D2 D2g2|fB3 d3c B2G2 G2B2|FB3 D3d c4 c2g2|
fd3 d3e f2d2 d2g2|fd3 d3e f2d2 db3|fd3 d3e f2g2 db3|fd3 d3B c4 c2g2|
fd3 d3e f2d2 d2g2|fd3 d3e f2d2 db3|fb3 fg3 df3 cd3|GB3 F3D C4 C2:|
